incomeartour/img/icons/user-group.svg

<svg width="35" height="26" viewBox="0 0 35 26" fill="none" xmlns="http://www.w3.org/2000/svg">
<path d="M11.5217 5.92028C13.0205 5.92028 14.2355 4.70527 14.2355 3.20648C14.2355 1.70769 13.0205 0.492676 11.5217 0.492676C10.0229 0.492676 8.80786 1.70769 8.80786 3.20648C8.80786 4.70527 10.0229 5.92028 11.5217 5.92028Z" fill="black"/>
<path d="M12.3994 17.9322C12.9581 17.2936 13.6366 16.7748 14.3948 16.3757C13.437 15.4977 12.8384 14.2606 12.8384 12.8637C12.8384 11.3073 13.5967 9.95039 14.7141 9.11231C13.8361 8.39395 12.7187 7.91504 11.5214 7.91504C11.0026 7.91504 10.5237 7.99486 10.0847 8.11458C10.2044 8.55358 10.2842 8.99258 10.2842 9.43158C10.2842 10.8284 9.6856 12.0656 8.72778 12.9436C10.6035 13.9812 12.0003 15.7771 12.3994 17.9322Z" fill="black"/>
<path d="M23.5742 5.92028C25.0729 5.92028 26.288 4.70527 26.288 3.20648C26.288 1.70769 25.0729 0.492676 23.5742 0.492676C22.0754 0.492676 20.8604 1.70769 20.8604 3.20648C20.8604 4.70527 22.0754 5.92028 23.5742 5.92028Z" fill="black"/>
<path d="M22.297 12.9044C22.297 14.3012 21.6983 15.5384 20.7405 16.4164C21.4988 16.7756 22.1373 17.2944 22.6961 17.893C23.1351 15.7379 24.5319 13.9819 26.4076 13.0241C25.4498 12.1461 24.8512 10.909 24.8512 9.51214C24.8512 9.03324 24.931 8.59424 25.0507 8.19515C24.5718 8.03551 24.0929 7.99561 23.614 7.99561C22.4167 7.99561 21.2993 8.4346 20.4213 9.15296C21.5387 9.95114 22.297 11.348 22.297 12.9044Z" fill="black"/>
<path d="M17.5879 15.618C19.0867 15.618 20.3018 14.403 20.3018 12.9042C20.3018 11.4054 19.0867 10.1904 17.5879 10.1904C16.0892 10.1904 14.8741 11.4054 14.8741 12.9042C14.8741 14.403 16.0892 15.618 17.5879 15.618Z" fill="black"/>
<path d="M17.5882 17.6548C14.8345 17.6548 12.5996 19.8897 12.5996 22.6434V24.0402C13.7969 24.6787 15.6327 25.0778 17.5882 25.0778C19.5438 25.0778 21.3397 24.6787 22.5768 24.0402V22.6434C22.5768 19.8897 20.3419 17.6548 17.5882 17.6548Z" fill="black"/>
<path d="M5.53448 12.2245C7.03327 12.2245 8.24829 11.0095 8.24829 9.51068C8.24829 8.01189 7.03327 6.79688 5.53448 6.79688C4.03569 6.79688 2.82068 8.01189 2.82068 9.51068C2.82068 11.0095 4.03569 12.2245 5.53448 12.2245Z" fill="black"/>
<path d="M10.5237 20.6476V19.2508C10.5237 16.4971 8.28884 14.2622 5.53513 14.2622C2.78141 14.2622 0.586426 16.4971 0.586426 19.2508V20.6476C1.78369 21.2862 3.6195 21.6853 5.57504 21.6853C7.53057 21.6853 9.32647 21.2862 10.5237 20.6476Z" fill="black"/>
<path d="M29.5604 12.2245C31.0592 12.2245 32.2742 11.0095 32.2742 9.51068C32.2742 8.01189 31.0592 6.79688 29.5604 6.79688C28.0616 6.79688 26.8466 8.01189 26.8466 9.51068C26.8466 11.0095 28.0616 12.2245 29.5604 12.2245Z" fill="black"/>
<path d="M24.5715 19.2508V20.6476C25.7688 21.2862 27.6046 21.6853 29.5601 21.6853C31.5157 21.6853 33.3116 21.2862 34.5488 20.6476V19.2508C34.5488 16.4971 32.3139 14.2622 29.5601 14.2622C26.8064 14.2622 24.5715 16.4971 24.5715 19.2508Z" fill="black"/>
</svg>

<svg width="35" height="26" fill="none" xmlns="http://www.w3.org/2000/svg"><path d="M11.522 5.92a2.714 2.714 0 100-5.427 2.714 2.714 0 000 5.427zm.878 12.012a6.91 6.91 0 011.995-1.556 4.732 4.732 0 01-1.557-3.512c0-1.557.759-2.914 1.876-3.752-.878-.718-1.995-1.197-3.193-1.197-.518 0-.997.08-1.436.2.12.439.2.878.2 1.317a4.732 4.732 0 01-1.557 3.512c1.876 1.037 3.272 2.833 3.671 4.988zM23.574 5.92a2.714 2.714 0 100-5.427 2.714 2.714 0 000 5.427zm-1.277 6.984a4.732 4.732 0 01-1.556 3.512c.758.36 1.396.878 1.955 1.477a7.037 7.037 0 013.712-4.869 4.732 4.732 0 01-1.557-3.512c0-.479.08-.918.2-1.317-.48-.16-.958-.2-1.437-.2a5.049 5.049 0 00-3.193 1.158c1.118.798 1.876 2.195 1.876 3.751zm-4.709 2.714a2.714 2.714 0 100-5.428 2.714 2.714 0 000 5.428zm0 2.037a4.99 4.99 0 00-4.988 4.988v1.397c1.197.639 3.033 1.038 4.988 1.038 1.956 0 3.752-.4 4.989-1.038v-1.397a4.99 4.99 0 00-4.989-4.988zm-12.054-5.43a2.714 2.714 0 100-5.428 2.714 2.714 0 000 5.428zm4.99 8.423V19.25a4.99 4.99 0 00-4.989-4.989c-2.754 0-4.949 2.235-4.949 4.989v1.397c1.198.638 3.034 1.037 4.989 1.037 1.956 0 3.751-.399 4.949-1.037zm19.036-8.423a2.714 2.714 0 100-5.428 2.714 2.714 0 000 5.428zm-4.988 7.025v1.398c1.197.638 3.033 1.037 4.988 1.037 1.956 0 3.752-.399 4.989-1.037V19.25a4.99 4.99 0 00-4.989-4.989 4.99 4.99 0 00-4.988 4.989z" fill="#000"/></svg>
